X: 28794
T: My Love My Love
R: jig
M: 6/8
K: Gmajor
|:GBd d2B|c2A B2G|GBd d2B|1 cAF G2 z:|2 cAF G2B||
BAB cBc|AGA B3|G>AG GBd|dcB A3|
BAB cBc|AGA B3|GBd d2B|cAF G3||

